icons/shield-x-16.svg

<svg xmlns="http://www.w3.org/2000/svg" width="16" height="16" viewBox="0 0 16 16"><path d="M8.533.133l5.25 1.68A1.75 1.75 0 0115 3.48V7c0 1.566-.32 3.182-1.303 4.682-.983 1.498-2.585 2.813-5.032 3.855a1.697 1.697 0 01-1.33 0c-2.447-1.042-4.049-2.357-5.032-3.855C1.32 10.182 1 8.566 1 7V3.48a1.75 1.75 0 011.217-1.667l5.25-1.68a1.748 1.748 0 011.066 0zm-.61 1.429l.001.001-5.25 1.68a.251.251 0 00-.174.237V7c0 1.36.275 2.666 1.057 3.859.784 1.194 2.121 2.342 4.366 3.298a.196.196 0 00.154 0c2.245-.957 3.582-2.103 4.366-3.297C13.225 9.666 13.5 8.358 13.5 7V3.48a.25.25 0 00-.174-.238l-5.25-1.68a.25.25 0 00-.153 0zM6.78 5.22L8 6.44l1.22-1.22a.749.749 0 011.275.326.749.749 0 01-.215.734L9.06 7.5l1.22 1.22a.749.749 0 01-.326 1.275.749.749 0 01-.734-.215L8 8.56 6.78 9.78a.751.751 0 01-1.042-.018.751.751 0 01-.018-1.042L6.94 7.5 5.72 6.28a.749.749 0 01.326-1.275.749.749 0 01.734.215z"/></svg>

<svg xmlns="http://www.w3.org/2000/svg" width="16" height="16" viewBox="0 0 16 16">
  <defs/>
  <path d="M8.533,0.133 L13.783,1.813 C14.508,2.045 15,2.719 15,3.48 L15,7 C15,8.566 14.68,10.182 13.697,11.682 C12.714,13.18 11.112,14.495 8.665,15.537 C8.24,15.718 7.76,15.718 7.335,15.537 C4.888,14.495 3.286,13.18 2.303,11.682 C1.32,10.182 1,8.566 1,7 L1,3.48 C1,2.719 1.492,2.045 2.217,1.813 L7.467,0.133 C7.814,0.022 8.186,0.022 8.533,0.133 Z M7.923,1.562 L7.924,1.563 L2.674,3.243 C2.571,3.276 2.501,3.372 2.5,3.48 L2.5,7 C2.5,8.36 2.775,9.666 3.557,10.859 C4.341,12.053 5.678,13.201 7.923,14.157 C7.972,14.178 8.028,14.178 8.077,14.157 C10.322,13.2 11.659,12.054 12.443,10.86 C13.225,9.666 13.5,8.358 13.5,7 L13.5,3.48 C13.5,3.371 13.43,3.275 13.326,3.242 L8.076,1.562 C8.026,1.546 7.973,1.546 7.923,1.562 Z M6.78,5.22 L8,6.44 L9.22,5.22 C9.407,5.019 9.689,4.937 9.954,5.005 C10.22,5.072 10.428,5.28 10.495,5.546 C10.563,5.811 10.481,6.093 10.28,6.28 L9.06,7.5 L10.28,8.72 C10.481,8.907 10.563,9.189 10.495,9.454 C10.428,9.72 10.22,9.928 9.954,9.995 C9.689,10.063 9.407,9.981 9.22,9.78 L8,8.56 L6.78,9.78 C6.484,10.055 6.024,10.047 5.738,9.762 C5.453,9.476 5.445,9.016 5.72,8.72 L6.94,7.5 L5.72,6.28 C5.519,6.093 5.437,5.811 5.505,5.546 C5.572,5.28 5.78,5.072 6.046,5.005 C6.311,4.937 6.593,5.019 6.78,5.22 Z"/>
</svg>
